src/icons/blockchains/noIcon.svg

<svg width="24" height="24" viewBox="0 0 24 24" fill="none" xmlns="http://www.w3.org/2000/svg">
  <rect width="24" height="24" rx="12" fill="#FF2A57" />
  <path
    d="M11.5 4.28868C11.8094 4.11004 12.1906 4.11004 12.5 4.28868L18.4282 7.71132C18.7376 7.88996 18.9282 8.22008 18.9282 8.57735V15.4226C18.9282 15.7799 18.7376 16.11 18.4282 16.2887L12.5 19.7113C12.1906 19.89 11.8094 19.89 11.5 19.7113L5.5718 16.2887C5.2624 16.11 5.0718 15.7799 5.0718 15.4226V8.57735C5.0718 8.22008 5.2624 7.88996 5.5718 7.71132L11.5 4.28868Z"
    fill="white"
  />
  <path
    fill-rule="evenodd"
    clip-rule="evenodd"
    d="M15.7717 9.33199L11.9999 7.1543L8.22778 9.33211L11.9997 11.4276L15.7717 9.33199ZM16.196 10.2402L12.4997 12.2938V16.5563L16.196 14.4222V10.2402ZM7.80371 14.4222L7.80371 10.2405L11.4997 12.2938V16.5561L7.80371 14.4222ZM12.4999 6.28827C12.1905 6.10964 11.8093 6.10964 11.4999 6.28827L7.30371 8.71092C6.99431 8.88955 6.80371 9.21968 6.80371 9.57695V14.4222C6.80371 14.7795 6.99431 15.1096 7.30371 15.2883L11.4999 17.7109C11.8093 17.8896 12.1905 17.8896 12.4999 17.7109L16.696 15.2883C17.0054 15.1096 17.196 14.7795 17.196 14.4222V9.57695C17.196 9.21968 17.0054 8.88955 16.696 8.71092L12.4999 6.28827Z"
    fill="#FF2A57"
  />
</svg>

<svg width="24" height="24" fill="none" xmlns="http://www.w3.org/2000/svg">
  <rect width="24" height="24" rx="12" fill="#FF2A57" />
  <path
    d="M11.5 4.289a1 1 0 0 1 1 0l5.928 3.422a1 1 0 0 1 .5.866v6.846a1 1 0 0 1-.5.866L12.5 19.71a1 1 0 0 1-1 0L5.572 16.29a1 1 0 0 1-.5-.866V8.577a1 1 0 0 1 .5-.866L11.5 4.29z"
    fill="#fff"
  />
  <path
    fill-rule="evenodd"
    clip-rule="evenodd"
    d="M15.772 9.332 12 7.154 8.228 9.332 12 11.428l3.772-2.096zm.424.908L12.5 12.294v4.262l3.696-2.134V10.24zm-8.392 4.182v-4.181l3.696 2.053v4.262l-3.696-2.134zM12.5 6.288a1 1 0 0 0-1 0L7.304 8.711a1 1 0 0 0-.5.866v4.845a1 1 0 0 0 .5.866l4.196 2.423a1 1 0 0 0 1 0l4.196-2.423a1 1 0 0 0 .5-.866V9.577a1 1 0 0 0-.5-.866L12.5 6.288z"
    fill="#FF2A57"
  />
</svg>
